lib/brands/icons/gitbook.svg

<svg xmlns="http://www.w3.org/2000/svg" fill="none" aria-hidden="true" viewBox="0 0 48 48"><g id="gitbook-Icon"><path id="Vector" fill="black" d="M22.0474 32.8336C22.6788 32.8336 23.0577 33.3388 23.0577 33.8439C23.0577 34.4753 22.5525 34.8542 22.0474 34.8542C21.416 34.8542 21.0371 34.349 21.0371 33.8439C21.0371 33.3388 21.416 32.8336 22.0474 32.8336ZM38.5904 26.3932C37.959 26.3932 37.5801 25.8881 37.5801 25.383C37.5801 24.8779 38.0852 24.3727 38.5904 24.3727C39.2218 24.3727 39.6006 24.8779 39.6006 25.383C39.6006 25.8881 39.0955 26.3932 38.5904 26.3932ZM38.5904 22.0996C36.8224 22.0996 35.307 23.615 35.307 25.383C35.307 25.7618 35.307 26.1407 35.4333 26.3932L24.6993 32.0759C24.0679 31.192 23.0577 30.6868 22.0474 30.6868C20.7846 30.6868 19.648 31.4445 19.1429 32.4548L9.54545 27.4035C8.5352 26.8984 7.7775 25.1304 7.90378 23.615C7.90378 22.8573 8.28263 22.2259 8.66148 21.9734C8.91404 21.8471 9.29289 21.8471 9.54545 21.9734H9.67174C12.1974 23.3625 20.6583 27.6561 20.9109 27.9086C21.416 28.1612 21.7948 28.2875 22.6788 27.7823L39.9795 18.8163C40.232 18.69 40.4846 18.4375 40.4846 18.0586C40.4846 17.5535 39.9795 17.3009 39.9795 17.3009C38.9692 16.7958 37.4538 16.1644 36.0647 15.4067C32.9077 13.8913 29.3718 12.2496 27.7301 11.4919C26.341 10.7342 25.3307 11.3657 25.0782 11.4919L24.6993 11.6182C17.6275 15.1541 8.15635 19.8266 7.65122 20.0791C6.64096 20.7105 6.13583 21.8471 6.00955 23.2362C5.88327 25.5093 7.01981 27.9086 8.78776 28.7926L19.0166 34.0965C19.2692 35.7381 20.6583 36.8747 22.1737 36.8747C23.9416 36.8747 25.457 35.4856 25.457 33.7176L36.6961 27.6561C37.3276 28.1612 37.959 28.2875 38.7167 28.2875C40.4846 28.2875 42 26.7721 42 25.0041C41.7474 23.4888 40.3583 22.0996 38.5904 22.0996Z"/></g></svg>

<svg xmlns="http://www.w3.org/2000/svg" fill="none" aria-hidden="true" viewBox="0 0 48 48"><path fill="#000" d="M22.047 32.834c.632 0 1.01.505 1.01 1.01 0 .631-.505 1.01-1.01 1.01-.631 0-1.01-.505-1.01-1.01s.379-1.01 1.01-1.01Zm16.543-6.44c-.631 0-1.01-.506-1.01-1.011 0-.505.505-1.01 1.01-1.01.632 0 1.01.505 1.01 1.01s-.505 1.01-1.01 1.01Zm0-4.294c-1.768 0-3.283 1.515-3.283 3.283 0 .379 0 .758.126 1.01L24.7 32.076c-.631-.884-1.641-1.39-2.652-1.39-1.262 0-2.399.759-2.904 1.769l-9.598-5.051c-1.01-.506-1.768-2.274-1.641-3.789 0-.758.379-1.39.757-1.642a1.08 1.08 0 0 1 .884 0h.127c2.525 1.39 10.986 5.683 11.239 5.936.505.252.884.379 1.768-.127l17.3-8.966c.253-.126.506-.378.506-.757 0-.506-.505-.758-.505-.758-1.01-.505-2.526-1.137-3.915-1.894a666.551 666.551 0 0 0-8.335-3.915c-1.389-.758-2.4-.126-2.652 0l-.379.126c-7.072 3.536-16.543 8.209-17.048 8.461-1.01.631-1.515 1.768-1.641 3.157-.127 2.273 1.01 4.673 2.778 5.557l10.229 5.303c.252 1.642 1.641 2.779 3.157 2.779 1.768 0 3.283-1.39 3.283-3.157l11.24-6.062c.63.505 1.262.632 2.02.632 1.768 0 3.283-1.516 3.283-3.284-.253-1.515-1.642-2.904-3.41-2.904Z"/></svg>
